src/assets/duotone/Scissor.svg

<svg width="24" height="24" viewBox="0 0 24 24"  xmlns="http://www.w3.org/2000/svg">
<path d="M5.5 10C7.433 10 9 8.433 9 6.5C9 4.567 7.433 3 5.5 3C3.567 3 2 4.567 2 6.5C2 8.433 3.567 10 5.5 10Z" />
<path d="M5.5 21C7.433 21 9 19.433 9 17.5C9 15.567 7.433 14 5.5 14C3.567 14 2 15.567 2 17.5C2 19.433 3.567 21 5.5 21Z" />
<path opacity="0.4" d="M15.2501 11.9798L22.4501 6.59978C22.7801 6.34978 22.8501 5.87978 22.6001 5.54978C22.3501 5.21978 21.8801 5.14978 21.5501 5.39978L14.0001 11.0498L8.45008 6.89978C8.12008 6.64978 7.65006 6.71978 7.40006 7.04978C7.15006 7.37978 7.22006 7.84978 7.55006 8.09978L12.7501 11.9898L6.85007 16.4098C6.52007 16.6598 6.45008 17.1298 6.70008 17.4598C6.85008 17.6598 7.07006 17.7598 7.30006 17.7598C7.46006 17.7598 7.61007 17.7098 7.75007 17.6098L14.0101 12.9298L21.5601 18.5798C21.6901 18.6798 21.8501 18.7298 22.0101 18.7298C22.2401 18.7298 22.4601 18.6298 22.6101 18.4298C22.8601 18.0998 22.7901 17.6298 22.4601 17.3798L15.2501 11.9798Z" />
</svg>

<?xml version="1.0" encoding="UTF-8"?>
<svg width="24" height="24" viewBox="0 0 24 24" xmlns="http://www.w3.org/2000/svg">
 <path d="m5.5 10c1.933 0 3.5-1.567 3.5-3.5s-1.567-3.5-3.5-3.5-3.5 1.567-3.5 3.5 1.567 3.5 3.5 3.5z"/>
 <path d="m5.5 21c1.933 0 3.5-1.567 3.5-3.5s-1.567-3.5-3.5-3.5-3.5 1.567-3.5 3.5 1.567 3.5 3.5 3.5z"/>
 <path d="m15.25 11.98 7.2-5.38c0.33-0.25 0.4-0.72 0.15-1.05s-0.72-0.4-1.05-0.15l-7.55 5.65-5.55-4.15c-0.33-0.25-0.80002-0.18-1.05 0.15s-0.18 0.8 0.15 1.05l5.2 3.89-5.9 4.42c-0.33 0.25-0.39999 0.72-0.14999 1.05 0.15 0.2 0.36998 0.3 0.59998 0.3 0.16 0 0.31001-0.05 0.45001-0.15l6.26-4.68 7.55 5.65c0.13 0.1 0.29 0.15 0.45 0.15 0.23 0 0.45-0.1 0.6-0.3 0.25-0.33 0.18-0.8-0.15-1.05l-7.21-5.4z" opacity=".4"/>
</svg>
